src/assets/images/prev.svg

<svg fill="none" height="22" viewBox="0 0 18 22" width="18" xmlns="http://www.w3.org/2000/svg"><path d="m2.66658 10.1109 13.63072-9.08667c.1003-.066802.217-.105126.3374-.110888.1205-.005763.2402.021255.3466.078172.1063.056916.1951.141606.2571.245046s.0948.22175.0949.34234v18.8427c-.0001.1206-.0329.2389-.0949.3423s-.1508.1881-.2571.2451c-.1064.0569-.2261.0839-.3466.0781-.1204-.0057-.2371-.0441-.3374-.1109l-13.63072-9.0866v8.444c0 .3536-.14047.6927-.39052.9428-.25005.25-.58919.3905-.94281.3905s-.69276-.1405-.942808-.3905c-.25005-.2501-.39052402-.5892-.39052402-.9428v-18.6667c0-.35362.14047402-.69276.39052402-.942808.250048-.250049.589188-.390523.942808-.390523s.69276.140474.94281.390523c.25005.250048.39052.589188.39052.942808z" fill="#fff"/></svg>

<svg width="18" height="22" viewBox="0 0 18 22" fill="none" xmlns="http://www.w3.org/2000/svg">
<path d="M2.66658 10.1109L16.2973 1.02423C16.3976 0.957428 16.5143 0.919104 16.6347 0.913342C16.7552 0.907579 16.8749 0.934597 16.9813 0.991514C17.0876 1.04843 17.1764 1.13312 17.2384 1.23656C17.3004 1.34 17.3332 1.45831 17.3333 1.5789L17.3333 20.4216C17.3332 20.5422 17.3004 20.6605 17.2384 20.7639C17.1764 20.8673 17.0876 20.952 16.9813 21.009C16.8749 21.0659 16.7552 21.0929 16.6347 21.0871C16.5143 21.0814 16.3976 21.043 16.2973 20.9762L2.66658 11.8896V20.3336C2.66658 20.6872 2.52611 21.0263 2.27606 21.2764C2.02601 21.5264 1.68687 21.6669 1.33325 21.6669C0.97963 21.6669 0.64049 21.5264 0.390442 21.2764C0.140392 21.0263 -8.2016e-05 20.6872 -8.2016e-05 20.3336L-8.2016e-05 1.6669C-8.2016e-05 1.31328 0.140392 0.97414 0.390442 0.724092C0.64049 0.474043 0.97963 0.333569 1.33325 0.333569C1.68687 0.333569 2.02601 0.474043 2.27606 0.724092C2.52611 0.97414 2.66658 1.31328 2.66658 1.6669V10.1109Z" fill="white"/>
</svg>
